svg/part/sock_line.svg

<?xml version="1.0" encoding="UTF-8"?>
<svg width="24px" height="24px" viewBox="0 0 24 24" version="1.1" xmlns="http://www.w3.org/2000/svg" xmlns:xlink="http://www.w3.org/1999/xlink">
    <title>sock_line</title>
    <g id="Icon" stroke="none" stroke-width="1" fill="none" fill-rule="evenodd">
        <g id="Part" transform="translate(-672.000000, -96.000000)">
            <g id="sock_line" transform="translate(672.000000, 96.000000)">
                <path d="M24,0 L24,24 L0,24 L0,0 L24,0 Z M12.5934901,23.257841 L12.5819402,23.2595131 L12.5108777,23.2950439 L12.4918791,23.2987469 L12.4918791,23.2987469 L12.4767152,23.2950439 L12.4056548,23.2595131 C12.3958229,23.2563662 12.3870493,23.2590235 12.3821421,23.2649074 L12.3780323,23.275831 L12.360941,23.7031097 L12.3658947,23.7234994 L12.3769048,23.7357139 L12.4804777,23.8096931 L12.4953491,23.8136134 L12.4953491,23.8136134 L12.5071152,23.8096931 L12.6106902,23.7357139 L12.6232938,23.7196733 L12.6232938,23.7196733 L12.6266527,23.7031097 L12.609561,23.275831 C12.6075724,23.2657013 12.6010112,23.2592993 12.5934901,23.257841 L12.5934901,23.257841 Z M12.8583906,23.1452862 L12.8445485,23.1473072 L12.6598443,23.2396597 L12.6498822,23.2499052 L12.6498822,23.2499052 L12.6471943,23.2611114 L12.6650943,23.6906389 L12.6699349,23.7034178 L12.6699349,23.7034178 L12.678386,23.7104931 L12.8793402,23.8032389 C12.8914285,23.8068999 12.9022333,23.8029875 12.9078286,23.7952264 L12.9118235,23.7811639 L12.8776777,23.1665331 C12.8752882,23.1545897 12.8674102,23.1470016 12.8583906,23.1452862 L12.8583906,23.1452862 Z M12.1430473,23.1473072 C12.1332178,23.1423925 12.1221763,23.1452606 12.1156365,23.1525954 L12.1099173,23.1665331 L12.0757714,23.7811639 C12.0751323,23.7926639 12.0828099,23.8018602 12.0926481,23.8045676 L12.108256,23.8032389 L12.3092106,23.7104931 L12.3186497,23.7024347 L12.3186497,23.7024347 L12.3225043,23.6906389 L12.340401,23.2611114 L12.337245,23.2485176 L12.337245,23.2485176 L12.3277531,23.2396597 L12.1430473,23.1473072 Z" id="MingCute" fill-rule="nonzero"></path>
                <path d="M16.9999,2 C18.1045,2 18.9999,2.89543 18.9999,4 L18.9999,11.3431 C18.9999,12.6692 18.4731,13.941 17.5354,14.8787 L12.5354,19.8787 C10.5828,21.8313 7.41697,21.8313 5.46435,19.8787 L5.12121,19.5355 C3.16858,17.5829 3.16858,14.4171 5.1212,12.4645 L8.70699,8.87868 C8.89453,8.69114 8.99988,8.43679 8.99988,8.17157 L8.99988,4 C8.99988,2.89543 9.89531,2 10.9999,2 L16.9999,2 Z M16.9999,7 L10.9999,7 L10.9999,8.17157 C10.9999,8.96722 10.6838,9.73028 10.1212,10.2929 L6.53542,13.8787 C5.36384,15.0503 5.36385,16.9497 6.53542,18.1213 L6.87856,18.4645 C8.05014,19.636 9.94963,19.636 11.1212,18.4645 L13.8284,15.7573 C13.3051,14.9669 12.9999,14.0183 12.9999,13 C12.9999,10.581 14.7176,8.56329 16.9999,8.10002 L16.9999,7 Z M16.9999,10.1707 C15.8347,10.5825 14.9999,11.6938 14.9999,13 C14.9999,13.4637 15.1046,13.9021 15.2921,14.2936 L16.1212,13.4645 C16.6838,12.9019 16.9999,12.1388 16.9999,11.3431 L16.9999,10.1707 Z M16.9999,4 L10.9999,4 L10.9999,5 L16.9999,5 L16.9999,4 Z" id="形状" fill="#09244B"></path>
            </g>
        </g>
    </g>
</svg>

<svg xmlns="http://www.w3.org/2000/svg" width="24" height="24"><g fill="none" fill-rule="evenodd"><path d="M24 0v24H0V0h24ZM12.593 23.258l-.011.002-.071.035-.02.004-.014-.004-.071-.035c-.01-.004-.019-.001-.024.005l-.004.01-.017.428.005.02.01.013.104.074.015.004.012-.004.104-.074.012-.016.004-.017-.017-.427c-.002-.01-.009-.017-.017-.018Zm.265-.113-.013.002-.185.093-.01.01-.003.011.018.43.005.012.008.007.201.093c.012.004.023 0 .029-.008l.004-.014-.034-.614c-.003-.012-.01-.02-.02-.022Zm-.715.002a.023.023 0 0 0-.027.006l-.006.014-.034.614c0 .012.007.02.017.024l.015-.002.201-.093.01-.008.004-.011.017-.43-.003-.012-.01-.01-.184-.092Z"/><path fill="#09244B" d="M17 2a2 2 0 0 1 2 2v7.343a5 5 0 0 1-1.465 3.536l-5 5a5 5 0 0 1-7.07 0l-.344-.344a5 5 0 0 1 0-7.07l3.586-3.586A1 1 0 0 0 9 8.172V4a2 2 0 0 1 2-2h6Zm0 5h-6v1.172a3 3 0 0 1-.879 2.12L6.535 13.88a3 3 0 0 0 0 4.242l.344.344a3 3 0 0 0 4.242 0l2.707-2.708A5.002 5.002 0 0 1 17 8.1V7Zm0 3.17a3.001 3.001 0 0 0-1.708 4.124l.83-.83a3 3 0 0 0 .878-2.12V10.17ZM17 4h-6v1h6V4Z"/></g></svg>
